dist/img/car4_icon.svg

<svg width="68" height="68" viewBox="0 0 68 68" fill="none" xmlns="http://www.w3.org/2000/svg">
<circle cx="34" cy="34" r="34" fill="#0D1B2B"/>
<path d="M41 28.3999H47.3544C47.8832 28.3999 48.3784 28.6615 48.6768 29.0983L51.4 33.9999H52.2C53.1 33.9999 53.8 34.5935 53.8 35.7671V41.1975C53.8 42.0815 53.0832 42.7999 52.2 42.7999H50.6" stroke="white" stroke-width="1.6"/>
<path d="M28.2 42.8H41V22H17V42.8H21.8" stroke="white" stroke-width="1.6"/>
<path fill-rule="evenodd" clip-rule="evenodd" d="M50.5999 42.8071C50.5999 44.5703 49.1639 45.9999 47.3927 45.9999C45.6215 45.9999 44.1855 44.5703 44.1855 42.8071C44.1855 41.0439 45.6215 39.6143 47.3927 39.6143C49.1639 39.6143 50.5999 41.0439 50.5999 42.8071Z" stroke="white" stroke-width="1.6"/>
<path fill-rule="evenodd" clip-rule="evenodd" d="M28.2141 42.8071C28.2141 44.5703 26.7781 45.9999 25.0069 45.9999C23.2357 45.9999 21.7997 44.5703 21.7997 42.8071C21.7997 41.0439 23.2357 39.6143 25.0069 39.6143C26.7781 39.6143 28.2141 41.0439 28.2141 42.8071Z" stroke="white" stroke-width="1.6"/>
<path d="M41 42.7999H44.2" stroke="white" stroke-width="1.6"/>
<path d="M42.6 34.8H48.2L49.8 34H51.4" stroke="white" stroke-width="1.6"/>
</svg>

<svg width="68" height="68" fill="none" xmlns="http://www.w3.org/2000/svg"><circle cx="34" cy="34" r="34" fill="#0D1B2B"/><path d="M41 28.4h6.354c.53 0 1.024.262 1.323.698L51.4 34h.8c.9 0 1.6.593 1.6 1.767v5.43c0 .884-.717 1.603-1.6 1.603h-1.6m-22.4 0H41V22H17v20.8h4.8" stroke="#fff" stroke-width="1.6"/><path clip-rule="evenodd" d="M50.6 42.807A3.2 3.2 0 0147.393 46a3.2 3.2 0 01-3.208-3.193 3.2 3.2 0 013.208-3.193 3.2 3.2 0 013.207 3.193zm-22.386 0A3.2 3.2 0 0125.007 46a3.2 3.2 0 01-3.207-3.193 3.2 3.2 0 013.207-3.193 3.2 3.2 0 013.207 3.193z" stroke="#fff" stroke-width="1.6"/><path d="M41 42.8h3.2m-1.6-8h5.6l1.6-.8h1.6" stroke="#fff" stroke-width="1.6"/></svg>
